src/icons/svg/organization.svg

<?xml version="1.0" encoding="UTF-8"?>
<svg width="40px" height="36px" viewBox="0 0 40 36" version="1.1" xmlns="http://www.w3.org/2000/svg"
>
    <polygon id="路径" points="21.8181818 10 21.8181818 26.3636364 18.1818182 26.3636364 18.1818182 10"></polygon>
    <polygon id="路径" fill-opacity="0.2"
             points="21.8181818 10 21.8181818 26.3636364 18.1818182 26.3636364 18.1818182 10"></polygon>
    <path d="M5.45454545,1.81818182 C5.45454545,0.814027728 6.26857318,0 7.27272727,0 L32.7272727,0 C33.7314268,0 34.5454545,0.814027728 34.5454545,1.81818182 L34.5454545,9.09090909 C34.5454545,10.0950632 33.7314268,10.9090909 32.7272727,10.9090909 L7.27272727,10.9090909 C6.26857318,10.9090909 5.45454545,10.0950632 5.45454545,9.09090909 L5.45454545,1.81818182 Z M9.09090909,3.63636364 L9.09090909,7.27272727 L30.9090909,7.27272727 L30.9090909,3.63636364 L9.09090909,3.63636364 Z"
          id="形状"></path>
    <path d="M5.45454545,1.81818182 C5.45454545,0.814027728 6.26857318,0 7.27272727,0 L32.7272727,0 C33.7314268,0 34.5454545,0.814027728 34.5454545,1.81818182 L34.5454545,9.09090909 C34.5454545,10.0950632 33.7314268,10.9090909 32.7272727,10.9090909 L7.27272727,10.9090909 C6.26857318,10.9090909 5.45454545,10.0950632 5.45454545,9.09090909 L5.45454545,1.81818182 Z M9.09090909,3.63636364 L9.09090909,7.27272727 L30.9090909,7.27272727 L30.9090909,3.63636364 L9.09090909,3.63636364 Z"
          id="形状" fill-opacity="0.2"></path>
    <path d="M8.93454545,17.1836364 C9.27077193,16.67175 9.84211106,16.3636363 10.4545455,16.3636363 L29.52,16.3636363 C30.1314421,16.3636363 30.7018887,16.6711633 31.0381818,17.1818182 L36.7909091,25.9090909 L33.7545455,27.9090909 L28.5418182,20 L11.4363636,20 L6.24727273,27.9072727 L3.20727273,25.9109091 L8.93454545,17.1836364 Z"
          id="路径"></path>
    <path d="M8.93454545,17.1836364 C9.27077193,16.67175 9.84211106,16.3636363 10.4545455,16.3636363 L29.52,16.3636363 C30.1314421,16.3636363 30.7018887,16.6711633 31.0381818,17.1818182 L36.7909091,25.9090909 L33.7545455,27.9090909 L28.5418182,20 L11.4363636,20 L6.24727273,27.9072727 L3.20727273,25.9109091 L8.93454545,17.1836364 Z"
          id="路径" fill-opacity="0.2"></path>
    <path d="M0,26.3636364 C0,25.3594823 0.814027728,24.5454545 1.81818182,24.5454545 L9.09090909,24.5454545 C10.0950632,24.5454545 10.9090909,25.3594823 10.9090909,26.3636364 L10.9090909,33.6363636 C10.9090909,34.6405177 10.0950632,35.4545455 9.09090909,35.4545455 L1.81818182,35.4545455 C0.814027728,35.4545455 0,34.6405177 0,33.6363636 L0,26.3636364 Z M3.63636364,28.1818182 L3.63636364,31.8181818 L7.27272727,31.8181818 L7.27272727,28.1818182 L3.63636364,28.1818182 Z"
          id="形状"></path>
    <path d="M0,26.3636364 C0,25.3594823 0.814027728,24.5454545 1.81818182,24.5454545 L9.09090909,24.5454545 C10.0950632,24.5454545 10.9090909,25.3594823 10.9090909,26.3636364 L10.9090909,33.6363636 C10.9090909,34.6405177 10.0950632,35.4545455 9.09090909,35.4545455 L1.81818182,35.4545455 C0.814027728,35.4545455 0,34.6405177 0,33.6363636 L0,26.3636364 Z M3.63636364,28.1818182 L3.63636364,31.8181818 L7.27272727,31.8181818 L7.27272727,28.1818182 L3.63636364,28.1818182 Z"
          id="形状" fill-opacity="0.2"></path>
    <path d="M14.5454545,26.3636364 C14.5454545,25.3594823 15.3594823,24.5454545 16.3636364,24.5454545 L23.6363636,24.5454545 C24.6405177,24.5454545 25.4545455,25.3594823 25.4545455,26.3636364 L25.4545455,33.6363636 C25.4545455,34.6405177 24.6405177,35.4545455 23.6363636,35.4545455 L16.3636364,35.4545455 C15.3594823,35.4545455 14.5454545,34.6405177 14.5454545,33.6363636 L14.5454545,26.3636364 Z M18.1818182,28.1818182 L18.1818182,31.8181818 L21.8181818,31.8181818 L21.8181818,28.1818182 L18.1818182,28.1818182 Z"
          id="形状"></path>
    <path d="M14.5454545,26.3636364 C14.5454545,25.3594823 15.3594823,24.5454545 16.3636364,24.5454545 L23.6363636,24.5454545 C24.6405177,24.5454545 25.4545455,25.3594823 25.4545455,26.3636364 L25.4545455,33.6363636 C25.4545455,34.6405177 24.6405177,35.4545455 23.6363636,35.4545455 L16.3636364,35.4545455 C15.3594823,35.4545455 14.5454545,34.6405177 14.5454545,33.6363636 L14.5454545,26.3636364 Z M18.1818182,28.1818182 L18.1818182,31.8181818 L21.8181818,31.8181818 L21.8181818,28.1818182 L18.1818182,28.1818182 Z"
          id="形状" fill-opacity="0.2"></path>
    <path d="M29.0909091,26.3636364 C29.0909091,25.3594823 29.9049368,24.5454545 30.9090909,24.5454545 L38.1818182,24.5454545 C39.1859723,24.5454545 40,25.3594823 40,26.3636364 L40,33.6363636 C40,34.6405177 39.1859723,35.4545455 38.1818182,35.4545455 L30.9090909,35.4545455 C29.9049368,35.4545455 29.0909091,34.6405177 29.0909091,33.6363636 L29.0909091,26.3636364 Z M32.7272727,28.1818182 L32.7272727,31.8181818 L36.3636364,31.8181818 L36.3636364,28.1818182 L32.7272727,28.1818182 Z"
          id="形状"></path>
    <path d="M29.0909091,26.3636364 C29.0909091,25.3594823 29.9049368,24.5454545 30.9090909,24.5454545 L38.1818182,24.5454545 C39.1859723,24.5454545 40,25.3594823 40,26.3636364 L40,33.6363636 C40,34.6405177 39.1859723,35.4545455 38.1818182,35.4545455 L30.9090909,35.4545455 C29.9049368,35.4545455 29.0909091,34.6405177 29.0909091,33.6363636 L29.0909091,26.3636364 Z M32.7272727,28.1818182 L32.7272727,31.8181818 L36.3636364,31.8181818 L36.3636364,28.1818182 L32.7272727,28.1818182 Z"
          id="形状" fill-opacity="0.2"></path>
</svg>

<svg width="40" height="36" xmlns="http://www.w3.org/2000/svg"><path d="M21.818 10v16.364h-3.636V10z"/><path fill-opacity=".2" d="M21.818 10v16.364h-3.636V10z"/><path d="M5.455 1.818C5.455.814 6.269 0 7.273 0h25.454c1.004 0 1.818.814 1.818 1.818v7.273a1.818 1.818 0 0 1-1.818 1.818H7.273a1.818 1.818 0 0 1-1.818-1.818V1.818zM9.09 3.636v3.637h21.818V3.636H9.091z"/><path d="M5.455 1.818C5.455.814 6.269 0 7.273 0h25.454c1.004 0 1.818.814 1.818 1.818v7.273a1.818 1.818 0 0 1-1.818 1.818H7.273a1.818 1.818 0 0 1-1.818-1.818V1.818zM9.09 3.636v3.637h21.818V3.636H9.091z" fill-opacity=".2"/><path d="M8.935 17.184c.336-.512.907-.82 1.52-.82H29.52c.611 0 1.182.307 1.518.818l5.753 8.727-3.036 2L28.542 20H11.436l-5.189 7.907-3.04-1.996 5.728-8.727z"/><path d="M8.935 17.184c.336-.512.907-.82 1.52-.82H29.52c.611 0 1.182.307 1.518.818l5.753 8.727-3.036 2L28.542 20H11.436l-5.189 7.907-3.04-1.996 5.728-8.727z" fill-opacity=".2"/><path d="M0 26.364c0-1.005.814-1.819 1.818-1.819h7.273c1.004 0 1.818.814 1.818 1.819v7.272a1.818 1.818 0 0 1-1.818 1.819H1.818A1.818 1.818 0 0 1 0 33.636v-7.272zm3.636 1.818v3.636h3.637v-3.636H3.636z"/><path d="M0 26.364c0-1.005.814-1.819 1.818-1.819h7.273c1.004 0 1.818.814 1.818 1.819v7.272a1.818 1.818 0 0 1-1.818 1.819H1.818A1.818 1.818 0 0 1 0 33.636v-7.272zm3.636 1.818v3.636h3.637v-3.636H3.636z" fill-opacity=".2"/><path d="M14.545 26.364c0-1.005.814-1.819 1.819-1.819h7.272c1.005 0 1.819.814 1.819 1.819v7.272a1.818 1.818 0 0 1-1.819 1.819h-7.272a1.818 1.818 0 0 1-1.819-1.819v-7.272zm3.637 1.818v3.636h3.636v-3.636h-3.636z"/><path d="M14.545 26.364c0-1.005.814-1.819 1.819-1.819h7.272c1.005 0 1.819.814 1.819 1.819v7.272a1.818 1.818 0 0 1-1.819 1.819h-7.272a1.818 1.818 0 0 1-1.819-1.819v-7.272zm3.637 1.818v3.636h3.636v-3.636h-3.636z" fill-opacity=".2"/><path d="M29.09 26.364c0-1.005.815-1.819 1.82-1.819h7.272c1.004 0 1.818.814 1.818 1.819v7.272a1.818 1.818 0 0 1-1.818 1.819h-7.273a1.818 1.818 0 0 1-1.818-1.819v-7.272zm3.637 1.818v3.636h3.637v-3.636h-3.637z"/><path d="M29.09 26.364c0-1.005.815-1.819 1.82-1.819h7.272c1.004 0 1.818.814 1.818 1.819v7.272a1.818 1.818 0 0 1-1.818 1.819h-7.273a1.818 1.818 0 0 1-1.818-1.819v-7.272zm3.637 1.818v3.636h3.637v-3.636h-3.637z" fill-opacity=".2"/></svg>
